X: 15953
T: Granny's 93rd
R: reel
M: 4/4
K: Gminor
K:Eb
|:E3B2c BG|FBGF FGGF|ECCC EFGB-|BGFE FGGF|
E3B2c BG|FB GF FG GF|ECCC EFGB-|1 BGFA GEEB,:|2 BGFA GEEE||
|:FB,B,B, F2 FG|FEGB cE B2-|BGFE CEEE|BGBc GFFF|
[1 FB,B,B, F2 FG|FEed c2cB|BGFE CEEE|EEAG FEEE:|
[2 EE eE dE e2|f2<e2 c4|cB BG FE EE|GA AG FE EB,||

